X:1
T:8 Lieder und Gesänge, Op.57
T:In meine Nächte Sehnen
T:5. In meiner Nächte Sehnen
T:Johannes Brahms
T:Georg Friedrich Daumer
T:8 Lieder und Gesänge, Op.57
T:OpenScore (CC0)
T:OpenScore (CC0)
T:OpenScore (CC0)
T:OpenScore (CC0)
C:Johannes Brahms
Z:Georg Friedrich Daumer
Z:OpenScore (CC0)
%%score 1 { ( 2 4 ) | ( 3 5 ) }
L:1/8
Q:1/4=84
M:6/8
K:G
V:1 treble nm="Singstimme\nVoice"
V:2 treble nm="Pianoforte"
V:4 treble 
V:3 bass 
V:5 bass 
V:1
"^Agitato" z | z6 | z6 | z6 | z2 z z2 B | G2 A B2 d | e3 ^d2 f | e3 =d3 | (c3 B2) B | G2 A B2 d | %10
w: ||||In|mei- ner Näch- te|Seh- nen, so|tief al-|lein, _ mit|tau- send, tau- send|
 e3 d2 g | f3 d3 | (^c3 B2) e | (d3- dB) ^c | (d3- dB) ^c | B2 z z2 z | z2 z z2 G | F2 G A2 B | %18
w: Trä- nen, ge-|denk ich|dein, _ ge-|denk, _ _ ge-|denk _ _ ich|dein.|Ach,|wer dein Ant- litz|
 c3 A2 ^G | F3 ^G3 | (A3- A^c) B | ^G2 A B2 ^c | d3 B2 z | z2 A (^GB) d | (=f3 e) z e | %25
w: schau- te, wem|dein Ge-|müt _ _ die|schö- ne Glut ver-|trau- te,|die es _ durch-|glüht, _ wem|
 =c2 d (ec) d | (e2 =c) e2 e | ^f2 ^d e2 e | c2 d (ec) d | (e2 c) e2 e | g2 e ^d2 z | %31
w: dei- ne Küs- * se|brann- * ten, wem|je vor Lust all|sei- ne Sin- * ne|schwan- * den an|dei- ner Brust,|
 f =d e (fd) e | (f2 d) f2 f | (^e2 d) ^c2 B | (=e2 ^c) (B2 ^A) | B2 z z2 z | z2 z z2 B | %37
w: all sei- ne Sin- * ne|schwan- * den an|dei- * ner, an|dei- * ner _|Brust|wie|
 G2 A B2 d | e3 ^d2 f | e3 =d3 | (c3 B2) B | G2 A B2 d | (e2 _e) d2 d | g3 =e3 | d2 z z2 f | %45
w: ra- ste- ten in|Frie- den ihm|Seel und|Leib, _ wenn|er von dir ge-|schie- * den, du|gött- lich|Weib, du|
 (e3- e^c) ^d | g3- g2 f | e2 z z2 z | z6 | z6 | z6 | z6 | z6 | z2 z !fermata!z2 |] %54
w: gött- * * lich,|gött- * lich|Weib!|||||||
V:2
!p!!<(! (B,!<)! |!>(! [G,E]3!>)! [F,^D])"_cresc." z!<(! (B,!<)! | %2
!>(! [G,EG]3!>)! [F,^DF]) z!<(! (B, | [GBe]3!<)!!>(! [FB=d]3 | [EGc]3!>)! [^DFB]2) z | %5
!p! G/B/G/B/G/B/ F/B/F/B/F/B/ |!<(! G/E/G/E/A/E/ B/F/B/F/[A^d]/F/!<)! |!mp! e3 =d3 | c3 B3 | %9
 G/B/G/B/G/B/ F/B/F/B/F/B/ | G/E/G/E/A/E/ B/D/B/!<(!D/ g!<)! |!mf! f3 d3 | ^c3 B2 B | %13
 B/F/B/F/^G/E/ B/F/G/E/^A/E/ | B/F/B/F/^G/E/ B/F/G/E/^A/E/ |!<(! ^D/F/D/F/E/=G/ F/=A/F/A/G/B/!<)! | %16
!>(! A/c/A/c/A/c/ F/A/!>)!F/A/E/G/ | ^D/F/D/F/E/G/!<(! F/A/F/A/G/B/!<)! | %18
!>(! A/c/A/c/A/c/ F/A/F/!>)!A/ B | ^c3 B3 | ^c3 B3 | E/^G/!<(!E/G/F/A/ G/B/G/B/A/^c/!<)! | %22
 x3 z2 [Ee] | [=F=f]3 [Ee]3 | [=F=f]3 [Ee]2!f! z | !>!e3 .e !>!e2 | e3 e3 |!>(! ^d3 e3!>)! | %28
 !>!a3 .^g !>!a2 | (^g2 a)!<(! g3!<)! |!f! =g3 f3 | b3 ^a !>!b2 | ^a2 b a3 | ^g3 ^e3 | (=e3 ^c3) | %35
!p! B2 z!<(! z2 z!<)! |!mp!!>(! A/=c/A/c/A/!>)!!p!c/ A/c/G/B/F/A/ | (G/B/G/B/G/B/ F/B/F/B/F/B/ | %38
 G/E/G/E/A/E/) z2 (^d | e3 =d3 | c3 B3) | G/B/G/B/G/B/!<(! F/B/F/B/F/B/ | %42
 E/G/E/G/F/A/ G/B/G/B/G/!mf!B/!<)! | g3 e3 | d3 !>!f3 | e3- e^c^d | e3- e^c^d | %47
!f! ^G/!<(!B/G/B/A/c/ B/d/B/d/c/e/!<)! | !>!c3- cBA |[K:bass] E2 z!<(! z2 z!<)! | %50
!>(! !>!C3-!>)! CB,A, |!p! ^G,6 |!p! ^G,6 | ^G,3- !fermata!G,2 |] %54
V:3
 (B,, | G,,2 A,, B,,) z (B,, | G,,2 A,, B,,) z (B,, | G,,2 A,, B,,2 D, | E,2 G, B,2) z | (E3 =D3 | %6
 C3 B,2) (B,, | G,,2 A,, B,,2 D, | E,2 G, B,2) z | (E3 D3 | C3 G,2) (G,, | D,,2 E,, F,,2 G,, | %12
 A,,2 ^C, E,2) (G, | B,2 E, F,2 F,,) | (B,,2 E,, F,,2 F,,,) | B,,,3 B,,3 | B,6 | B,,,3 B,,3 | %18
 B,3- B,2 E, | A,3 ^G,3 | F,3 ^D,3 | E,,3 E,3 | E3- E2 E, | [D,A,D]3 [E,^G,B,]3 | %24
 [D,A,D]3 [E,^G,B,]2 E | (=C2 D) E(CD) | (E2 A,) (E2 E,) | A,,3 E,,2 E | (C2 D) E(CD) | %29
 (E2 A,) (E2 E,) | E,,3 B,,,2 F | (D2 E) F(DE) | (F2 B,) (F2 F,) | B,,3 B,,,3 | (F,,,3 F,,3) | %35
 B,,,3 B,,3 | B,6 | (E3 D3 | C3 B,2) (B,, | G,,2 A,, B,,2 D, | E,2 G, B,2) z | (E3 D3 | %42
 C3 G,2) (G,, | C,,2 D,, E,,2 F,,) | (G,,2 B,, D,2 F,) | (A,2 ^A, B,2 B,,) | %46
 (G,,A,,^A,, B,,2 B,,,) | E3 E,3 | !>!A,,6 | E,3 E,,3 | [A,,,A,,]6 | [E,,,E,,]6 | [E,,,E,,]6 | %53
 [E,,,E,,]3- !fermata![E,,,E,,]2 |] %54
V:4
 x | x6 | x6 | x6 | x6 | x6 | x6 | B/G/B/G/B/G/ F/B/F/B/F/B/ | E/G/E/G/E/G/ ^D/F/D/F/D/F/ | x6 | %10
 x4 x B/d/ | A/d/A/d/A/d/ A/F/A/F/A/F/ | E/A/E/A/E/A/ G/E/G/E/B/E/ | x6 | x6 | x6 | x6 | x6 | %18
 x4 x ^G/E/ | ^D/F/D/F/D/F/ E/^G/E/G/E/G/ | ^D/A/D/A/D/A/ F/A/F/A/F/A/ | x6 | %22
 B/d/B/d/B/d/ ^G/B/G/"_cresc."B/G/B/ | A/d/A/d/A/d/ ^G/B/G/B/G/B/ | A/d/A/d/A/d/ ^G/B/G/B/G/B/ | %25
 A/=c/A/c/A/c/ ^G/B/A/c/A/c/ | ^G/B/G/B/!<(!A/c/ G/B/G/B/G/B/!<)! | ^F/c/F/c/F/c/ ^G/B/G/B/G/B/ | %28
 c/e/c/e/c/e/ B/e/c/e/c/e/ | B/e/B/e/c/e/ B/e/B/e/B/e/ | ^A/^c/A/c/A/c/ B/^d/B/d/B/d/ | %31
 =d/f/d/f/d/f/ ^c/f/d/f/d/f/ | ^c/f/c/f/d/f/ c/f/c/f/c/f/ | B/d/B/!>(!d/B/d/ ^G/d/G/d/G/d/ | %34
 G/^A/G/A/G/A/ E/!>)!!mp!G/!>(!E/G/E/G/!>)! | ^D/F/D/F/E/G/ F/A/F/A/G/B/ | x6 | x6 | %38
 x3 B/F/B/F/A/F/ | B/G/B/G/B/G/ F/B/F/B/F/B/ | E/G/E/G/E/G/ ^D/F/D/F/D/F/ | x6 | x6 | %43
 e/G/e/G/e/G/ c/G/c/G/c/G/ | B/G/B/G/B/G/ A/F/A/F/A/F/ | c/E/c/E/^c/G/ B/!<(!G/=A/E/A/F/ | %46
 B/E/c/E/^c/G/ B/G/=A/E/A/F/!<)! | x6 | ^D/F/D/F/D/F/ D/F/D/F/D/F/ | %49
[K:bass] ^G,/B,/G,/B,/A,/C/ B,/D/B,/D/C/E/ | ^D,/F,/D,/F,/D,/!>(!F,/ D,/F,/D,/F,/D,/F,/!>)! | %51
 B,,/!>(!E,/B,,/E,/B,,/E,/ B,,/E,/B,,/E,/B,,/E,/!>)! | %52
 B,,/E,/B,,/E,/B,,/E,/ B,,/E,/B,,/E,/B,,/E,/ | B,,3- !fermata!B,,2 |] %54
V:5
 x | x6 | x6 | x6 | x6 | x6 | x6 | x6 | x6 | x6 | x6 | x6 | x6 | x6 | x6 | x6 | x6 | x6 | x6 | %19
 B,,6 | B,,6 | x6 | x6 | x6 | x6 | x6 | x6 | x6 | x6 | x6 | x6 | x6 | x6 | x6 | x6 | x6 | x6 | x6 | %38
 x6 | x6 | x6 | x6 | x6 | x6 | x6 | x6 | x6 | x6 | x6 | x6 | x6 | x6 | x6 | x5 |] %54

